X:1
T:Captain Wedderburn's Courtship
M:4/4
L:1/4
K:C
 z2 z c| e e d d| c2 G G| c3/2 A/2 G3/2 E/2| F2 zE/2-F/2| G E D3/2 C/2|\
 C E G G| c e d3/2 c/2| c2 z2|

